X:1
T:Title
%%score { 1 | 2 }
L:1/8
M:6/8
K:G
V:1 treble nm="Grand Piano"
V:2 treble 
V:1
 z3 z2[Q:1/4=100] D | G2 B B2 B | [GB]2 [FA] [FA]2 [GB] | [Ac]2 [Ac] [GB]2 A | G3- G2 D | %5
 E2 [EG] [EG]2 E | D2 G B2 B | A2 [Fd] [E^c][GB][Gc] | [Fd]3- [Fd]2 [Fd] | [Fc]2 [Fc] [Fd]2 [Fc] | %10
 [Fc]2 B B2 D | G2 B d2 B | [FA]3- [FA]2 [FA] | B2 B B2 D | E2 [EG] [EG]2 [EA] | B2 G B2 A | G6 | %17
 B2 B B2 d | [Ed]2 [Ec] [Ec]3 | BAG [FA]2 [GB] | [FA]3- [FA]2 D | BcB A2 D | B2 A G2 D | %23
 E2 [EA] [DB]2 [DA] |[M:5/8] [DG]-[DG]- [DG]3 |] %25
V:2
 z3 z2 [G,B,] | [G,B,D]2 [G,DG] [G,DG]2 [G,DG] | [D,D]2 [D,D] [D,D]2 [D,D] | %3
 [D,D]2 [D,D] [D,D]2 [D,CD] | [G,B,D]3- [G,B,D]2 [B,,G,] | [C,G,C]2 [C,C] [C,C]2 [E,G,C] | %6
 [G,B,]2[K:treble] [G,B,D] [G,DG]2 [G,DG] | [A,DF]2[K:bass] [A,,A,] [A,,A,]2 [A,,A,] | %8
 [D,A,]3- [D,A,]2 [D,A,] | [D,A,]2 [D,A,] [D,A,]2 [D,A,] | [D,D]2[K:treble] [G,DG] [G,DG]2 [G,B,] | %11
 [G,B,D]2 [G,DG] [G,B,G]2 [G,DG] | [D,D]3- [D,D]2 [D,D] | [G,DG]2 [G,DG] [G,DG]2[K:bass] [B,,G,] | %14
 [C,G,C]2 [C,C] [C,C]2 [C,G,] | [D,G,D]2 [D,B,D] [D,D]2 [D,CD] | [G,B,D]6 | %17
 [G,DG]2 [G,DG] [G,DG]2 [G,B,=F] | [C,C]2 [C,G,] [C,G,]3 | [G,D][G,CD][G,B,] [D,D]2 [D,D] | %20
 [D,D]3- [D,D]2 [D,F,] | [G,D][G,E][G,D] [D,F,C]2 [D,F,] | [D,G,D]2 [D,CD] [G,B,D]2 [B,,G,] | %23
 [C,G,C]2 [C,G,] [C,G,]2 [D,C] |[M:5/8] [G,,G,]-[G,,G,]- [G,,G,]3 |] %25

